X:134
T:The Bugle
Z:Jack Campin, http://www.campin.me.uk/
F:Jack Campin's Nine-Note Tunebook
% last edit 03-02-2013
M:6/8
L:1/8
Q:3/8=120
K:G
D|GBD G2D|GBD G2B|d2B G2B|ABA AFD|
  GBD G2D|GBD G2B|d2B AGA|BGG G2:|
A|B3  cBc|d3  B2c|dcB B2G|ABA AFD|
  B3  cBc|d3  B2c|dcB A2F|G3  G2:|

